X: 97
T: No_186_Old_Man's_Dance_Song_(e).krn
N: Derived from No_186_Old_Man's_Dance_Song_(e).krn
%%abc-version 2.0
%%abcx-abcm2ps-target-version 5.9.1 (29 Sep 2008)
%%abc-creator hum2abc beta
%%abcx-conversion-date 2019/03/15 08:38:45
%%humdrum-veritas 2943272644
%%humdrum-veritas-data 793189219
%%linebreak <none>
%%barnumbers 0
L: 1/8
M: 2/4
K: Eb clef=bass
[K:clef=bass][M:2/4]B,3(B,//G,3//) ]|:  
[M:3/4](A,G,)G,2(A,G,) ||  
[M:2/4]A,3z | 
(B,2G,) A,//G,3// | 
(A,G,)G,2 ||  
[M:5/8]E,E,E,B,(B,//G,3//) [I:setbarnb 7]:|]  
[M:2/4]E,E,E,2 |]  



